components/ui-node-icon/src/winFunc/winFunc.medium.svg

<svg width="24" height="24" viewBox="0 0 24 24" fill="none" xmlns="http://www.w3.org/2000/svg">
  <path fill-rule="evenodd" clip-rule="evenodd" d="M16 3C14.8954 3 14 3.89543 14 5V6C14 7.10457 14.8954 8 16 8H20C21.1046 8 22 7.10457 22 6V5C22 3.89543 21.1046 3 20 3H16ZM16 15C14.8954 15 14 15.8954 14 17V18C14 19.1046 14.8954 20 16 20H20C21.1046 20 22 19.1046 22 18V17C22 15.8954 21.1046 15 20 15H16Z" fill="var(--tbl--colors--icons--clean--secondary)"/>
  <path fill-rule="evenodd" clip-rule="evenodd" d="M2 7C2 5.89543 2.89543 5 4 5H7C8.10457 5 9 5.89543 9 7V16C9 17.1046 8.10457 18 7 18H4C2.89543 18 2 17.1046 2 16V7ZM14 11C14 9.89543 14.8954 9 16 9H20C21.1046 9 22 9.89543 22 11V12C22 13.1046 21.1046 14 20 14H16C14.8954 14 14 13.1046 14 12V11ZM11.8321 9.4453C11.5876 9.07864 11.132 8.91521 10.7102 9.04291C10.2885 9.17061 10 9.55933 10 10V13C10 13.4407 10.2885 13.8294 10.7102 13.9571C11.132 14.0848 11.5876 13.9214 11.8321 13.5547L12.8321 12.0547C13.056 11.7188 13.056 11.2812 12.8321 10.9453L11.8321 9.4453Z" fill=" var(--tbl--colors--icons--clean--primary)"/>
</svg>

<svg xmlns="http://www.w3.org/2000/svg" width="24" height="24" fill="none" viewBox="0 0 24 24">
  <path fill="var(--tbl--colors--icons--clean--secondary)" fill-rule="evenodd" d="M16 3a2 2 0 0 0-2 2v1a2 2 0 0 0 2 2h4a2 2 0 0 0 2-2V5a2 2 0 0 0-2-2h-4Zm0 12a2 2 0 0 0-2 2v1a2 2 0 0 0 2 2h4a2 2 0 0 0 2-2v-1a2 2 0 0 0-2-2h-4Z" clip-rule="evenodd"/>
  <path fill="var(--tbl--colors--icons--clean--primary)" fill-rule="evenodd" d="M2 7a2 2 0 0 1 2-2h3a2 2 0 0 1 2 2v9a2 2 0 0 1-2 2H4a2 2 0 0 1-2-2V7Zm12 4a2 2 0 0 1 2-2h4a2 2 0 0 1 2 2v1a2 2 0 0 1-2 2h-4a2 2 0 0 1-2-2v-1Zm-2.168-1.555A1 1 0 0 0 10 10v3a1 1 0 0 0 1.832.555l1-1.5a1 1 0 0 0 0-1.11l-1-1.5Z" clip-rule="evenodd"/>
</svg>
